X:1
T:Preludio
T:Preludio
T:En ré mayor
T:Francisco Tárrega (1852 - 1909)
C:Francisco Tárrega
%%score ( 1 2 )
L:1/8
Q:1/4=80
M:3/4
K:D
V:1 treble-8 nm="Classical Guitar" snm="Guit."
V:2 treble-8 
V:1
"^Andante""^II" [Adf]2"^III" [Bdg]2"^II" [Aca]2 | [Adf]4 [FBd]2 | [GBe]B c!-(!d!-)!{/g} gf | %3
 [cf]6 |"^II" [Adf]g !-(!a!-)!{/=c'}c' ba | a2 g2 z2 |"^II" fa- a[Gde] [Gce]2 | [FAd]6 :| %8
V:2
 D2 G2 A,2 | D4 B,2 | G,2 z2 z2 | [F^A]6 | B,2 z2 z2 | [EGB]3 E FG | [Ad]2 AA, A,2 | D,6 :| %8

